aws.svg

<?xml version="1.0" encoding="utf-8"?>
<!-- Generator: Adobe Illustrator 13.0.0, SVG Export Plug-In . SVG Version: 6.00 Build 14948)  -->
<!DOCTYPE svg PUBLIC "-//W3C//DTD SVG 1.1//EN" "http://www.w3.org/Graphics/SVG/1.1/DTD/svg11.dtd">
<svg version="1.1" id="Layer_1" xmlns="http://www.w3.org/2000/svg" xmlns:xlink="http://www.w3.org/1999/xlink" x="0px" y="0px"
	 width="449.667px" height="269.667px" viewBox="-47.333 -47.333 449.667 269.667"
	 enable-background="new -47.333 -47.333 449.667 269.667" xml:space="preserve">
<g transform="translate(0.5,0.5)">
	<path pointer-events="none" fill="#D9A741" d="M34.92,46.51L4.77,50.79V23.2l30.15,4.29V46.51z"/>
	<path pointer-events="none" fill="#876929" d="M1,24.34l29.5-8.94V1L1,15.91V24.34z"/>
	<path pointer-events="none" fill="#876929" d="M1.02,49.65L30.5,58.6V73L1.02,58.09V49.65z"/>
	<path pointer-events="none" fill="#D9A741" d="M60,24.35L30.5,15.4V1L60,15.91V24.35z"/>
	<path pointer-events="none" fill="#D9A741" d="M59.98,49.66L30.5,58.6V73l29.48-14.9V49.66z"/>
	<path pointer-events="none" fill="#876929" d="M4.77,59.99L1,58.09V15.91L4.77,14V59.99z"/>
	<path pointer-events="none" fill="#876929" d="M19.63,44.76l10.87,1.4V27.83l-10.87,1.4V44.76z"/>
	<path pointer-events="none" fill="#876929" d="M8.7,43.35l7.05,0.91V29.73L8.7,30.64V43.35z"/>
	<path pointer-events="none" fill="#624A1E" d="M4.77,23.2l25.73-7.8L60,24.35L34.94,27.5L4.77,23.2z"/>
	<path pointer-events="none" fill="#FAD791" d="M4.77,50.79L30.5,58.6l29.48-8.94l-25.06-3.15L4.77,50.79z"/>
	<path pointer-events="none" fill="#D9A741" d="M59.98,42.33L30.5,46.09V27.83l29.48,3.8V42.33z"/>
	<path pointer-events="none" fill="#F58536" d="M106.85,57.95l-6.89,1.59V14.41l6.89,1.59V57.95z"/>
	<path pointer-events="none" fill="#F58536" d="M115.45,60.62l-8.6,2.47V10.93l8.6,2.46V60.62z"/>
	<path pointer-events="none" fill="#F58536" d="M126.5,63.35l-11.05,4.09V6.58l11.05,4.08V63.35z"/>
	<path pointer-events="none" fill="#F58536" d="M156,58.09L126.5,73V1L156,15.91V58.09z"/>
	<path pointer-events="none" fill="#9D5025" d="M120.61,3.97L126.5,1v72l-5.89-2.97V3.97z"/>
	<path pointer-events="none" fill="#9D5025" d="M110.9,8.88l4.55-2.3v60.84l-4.55-2.3V8.88z"/>
	<path pointer-events="none" fill="#9D5025" d="M103.22,12.76l3.63-1.84v52.16l-3.63-1.84V12.76z"/>
	<path pointer-events="none" fill="#9D5025" d="M99.96,14.41L97,15.9v42.2l2.96,1.49V14.41z"/>
	<path pointer-events="none" fill="#2D72B8" d="M242.13,19.14l6.87,5.37v-7.6l-6.91-8.77V19.1l0.04,0.01V19.14z"/>
	<path pointer-events="none" fill="#5294CF" d="M228.9,73l13.189-7.15V8.12L228.891,1L228.9,73z"/>
	<path pointer-events="none" fill="#205B98" d="M210.1,73l-13.189-7.15V8.12L210.109,1L210.1,73z"/>
	<rect x="210.109" y="1" pointer-events="none" fill="#2D72B8" width="18.761" height="72"/>
	<path pointer-events="none" fill="#2D72B8" d="M242.09,54.9v10.95l6.91-8.76v-7.6l-6.87,5.39L242.09,54.9z"/>
	<path pointer-events="none" fill="#2D72B8" d="M242.09,50.27l0.04-0.01l6.87-4v-7.65l-6.91,0.69V50.27z"/>
	<path pointer-events="none" fill="#2D72B8" d="M242.13,23.76l-0.04-0.01v10.93l6.91,0.7v-7.64L242.13,23.76z"/>
	<path pointer-events="none" fill="#1A476F" d="M249,35.38l-6.91-0.7l-13.199-0.57H219.5h-9.391l-13.199,0.57v-10.9h-0.01l0.01-0.03
		l13.199-3.31h9.391h9.391l13.199,3.31l4.86,2.8v-1.8l2.05-0.24l-6.91-5.41l-13.199-4.43H219.5h-9.391L196.91,19.1V8.14L190,16.9
		v7.66l0.061-0.05l1.989,0.24v1.83L190,27.77v7.62l0.061-0.01l1.989,0.03v3.2l-1.72,0.03L190,38.6v7.62l2.05,1.2v1.85l-1.97,0.24
		L190,49.44v7.65l6.91,8.76V54.9l13.199,4.43h9.391h9.391l13.239-4.45l6.87-5.36l-2.05-0.25v-1.82l-4.82,2.81l-13.239,3.29v0.01
		H219.5h-9.391v-0.01l-13.239-3.29l-0.03-0.05l0.07,0.04V39.3l13.199,0.57v0.01h9.391h9.391v-0.01l13.199-0.57l6.91-0.66l-2.05-0.03
		v-3.2L249,35.38z"/>
	<path pointer-events="none" fill="#99BCE3" d="M60,149.66l-29.5-3.71L1,149.66l29.5,8.939L60,149.66z"/>
	<path pointer-events="none" fill="#1A476F" d="M60,124.34l-29.5,3.71L1,124.34l29.5-8.939L60,124.34z"/>
	<path pointer-events="none" fill="#205B98" d="M30.5,101L1,115.9v8.439l29.5-8.939V101z"/>
	<path pointer-events="none" fill="#205B98" d="M30.5,158.6L1,149.66v8.439L30.5,173V158.6z"/>
	<path pointer-events="none" fill="#205B98" d="M30.5,147.891l-12.47-1.91v-17.82l12.47-1.87V147.891z"/>
	<path pointer-events="none" fill="#5294CF" d="M30.5,101L60,115.9v8.439L30.5,115.4V101z"/>
	<path pointer-events="none" fill="#5294CF" d="M30.5,158.6L60,149.66v8.439L30.5,173V158.6z"/>
	<path pointer-events="none" fill="#5294CF" d="M30.5,147.891l12.47-1.91v-17.82l-12.47-1.87V147.891z"/>
	<path pointer-events="none" fill="#1A476F" d="M290,157.09l7.38,8.77v-57.719L290,116.9V157.09z"/>
	<path pointer-events="none" fill="#205B98" d="M297.38,165.859L311.47,173l0.01-72l-14.1,7.12V165.859z"/>
	<path pointer-events="none" fill="#2D72B8" d="M353,116.9l-7.38-8.76v57.719l7.38-8.77V116.9z"/>
	<path pointer-events="none" fill="#5294CF" d="M331.521,173l14.1-7.141V108.12L331.51,101L331.521,173z"/>
	<rect x="311.479" y="101" pointer-events="none" fill="#2D72B8" width="20.041" height="72"/>
	<path pointer-events="none" fill="#F58536" d="M231.96,166.7L219.5,173v-72l12.46,6.3V166.7z"/>
	<path pointer-events="none" fill="#9D5025" d="M207.03,166.7l12.47,6.3v-72l-12.47,6.3V166.7z"/>
	<path pointer-events="none" fill="#F58536" d="M214.8,127.21l-21.05-2.71v-10.49L214.8,119V127.21z"/>
	<path pointer-events="none" fill="#9D5025" d="M245.23,120.15l-21.041,3.66v8.58l21.041-1.271V120.15z"/>
	<path pointer-events="none" fill="#F58536" d="M249,131.53l-3.77-0.5v-10.88l3.77,1.399V131.53z"/>
	<path pointer-events="none" fill="#9D5025" d="M190,115.91l3.75-1.9v10.49l-3.75,1.03V115.91z"/>
	<path pointer-events="none" fill="#6B3A19" d="M214.8,127.21l-4.38,0.64L190,125.53l3.75-1.03L214.8,127.21z"/>
	<path pointer-events="none" fill="#6B3A19" d="M249,131.53l-20.9,1.13l-3.91-0.27l21.471-1.301L249,131.53z"/>
	<path pointer-events="none" fill="#8C3123" d="M135.24,130.85l13.65-1.06v-17.431l-13.65,3.601V130.85z"/>
	<path pointer-events="none" fill="#E05243" d="M140.57,128.62l-14.21-2.09V101l14.21,7.22V128.62z"/>
	<path pointer-events="none" fill="#E05243" d="M156,130.87l-7.11-1.05v-17.461l7.11,3.601V130.87z"/>
	<path pointer-events="none" fill="#5E1F18" d="M135.24,130.85l13.5-1.05l7.26,1.07l-13.04,0.79L135.24,130.85z"/>
	<path pointer-events="none" fill="#8C3123" d="M135.24,143.15l13.65,1.06v17.431l-13.65-3.601V143.15z"/>
	<path pointer-events="none" fill="#E05243" d="M140.57,145.38l-14.21,2.09V173l14.21-7.22V145.38z"/>
	<path pointer-events="none" fill="#E05243" d="M155.85,143.13l-7.09,1.05v17.461l7.09-3.601V143.13z"/>
	<path pointer-events="none" fill="#F2B0A9" d="M135.24,143.15l13.5,1.05l7.26-1.07l-13.04-0.79L135.24,143.15z"/>
	<path pointer-events="none" fill="#E05243" d="M117.61,130.85l-13.64-1.06v-17.431l13.64,3.601V130.85z"/>
	<path pointer-events="none" fill="#8C3123" d="M112.28,128.62l14.22-2.09V101l-14.22,7.22V128.62z"/>
	<path pointer-events="none" fill="#8C3123" d="M97,130.87l7.11-1.05v-17.461L97,115.96V130.87z"/>
	<path pointer-events="none" fill="#5E1F18" d="M117.75,130.85l-13.5-1.05L97,130.87l13.03,0.79L117.75,130.85z"/>
	<path pointer-events="none" fill="#E05243" d="M117.61,143.15l-13.64,1.06v17.431l13.64-3.601V143.15z"/>
	<path pointer-events="none" fill="#8C3123" d="M112.28,145.38l14.22,2.09V173l-14.22-7.22V145.38z"/>
	<path pointer-events="none" fill="#8C3123" d="M97,143.13l7.11,1.05v17.461L97,158.04V143.13z"/>
	<path pointer-events="none" fill="#F2B0A9" d="M117.75,143.15l-13.5,1.05L97,143.13l13.03-0.79L117.75,143.15z"/>
	<path pointer-events="none" fill="#F2B0A9" d="M140.72,145.38l-14.22-1.41l-14.22,1.41l14.22,2.12L140.72,145.38z"/>
	<path pointer-events="none" fill="#5E1F18" d="M140.72,128.62l-14.22,1.39l-14.22-1.39l14.22-2.09L140.72,128.62z"/>
	<path pointer-events="none" fill="#8C3123" d="M321.5,54.35l24.75,6.05V13.49l-24.75,6.05V54.35z"/>
	<path pointer-events="none" fill="#E05243" d="M346.25,13.49l4.75,2.4v42.12l-4.75,2.4V13.49z"/>
	<path pointer-events="none" fill="#E05243" d="M332.29,21.86l-10.79-2.7V1l10.79,5.45V21.86z"/>
	<path pointer-events="none" fill="#E05243" d="M321.5,73l10.79-5.45v-15.4l-10.79,2.69V73z"/>
	<path pointer-events="none" fill="#E05243" d="M332.29,44.71L321.5,46.1V27.94l10.79,1.37V44.71z"/>
	<path pointer-events="none" fill="#E05243" d="M321.5,54.35l-24.75,6.05V13.49l24.75,6.05V54.35z"/>
	<path pointer-events="none" fill="#8C3123" d="M296.75,13.49l-4.75,2.4v42.12l4.75,2.4V13.49z"/>
	<path pointer-events="none" fill="#8C3123" d="M310.71,21.86l10.79-2.7V1l-10.79,5.45V21.86z"/>
	<path pointer-events="none" fill="#8C3123" d="M321.5,73l-10.79-5.45v-15.4l10.79,2.69V73z"/>
	<path pointer-events="none" fill="#8C3123" d="M310.71,44.71l10.79,1.39V27.94l-10.79,1.37V44.71z"/>
	<path pointer-events="none" fill="#5E1F18" d="M332.29,21.86l-10.79,1.98l-10.79-1.98l10.79-2.7L332.29,21.86z"/>
	<path pointer-events="none" fill="#F2B0A9" d="M332.29,52.14l-10.79-1.99l-10.79,1.99l10.79,2.72L332.29,52.14z"/>
</g>
</svg>

<!DOCTYPE svg PUBLIC "-//W3C//DTD SVG 1.1//EN" "http://www.w3.org/Graphics/SVG/1.1/DTD/svg11.dtd">
<svg xmlns="http://www.w3.org/2000/svg" xmlns:xlink="http://www.w3.org/1999/xlink" width="355px" height="175px" version="1.1" content="&lt;mxfile userAgent=&quot;Mozilla/5.0 (Macintosh; Intel Mac OS X 10_11_6) AppleWebKit/537.36 (KHTML, like Gecko) Chrome/49.0.2623.110 Safari/537.36&quot; version=&quot;5.6.0.3&quot; editor=&quot;www.draw.io&quot; type=&quot;device&quot;&gt;&lt;diagram&gt;xZbPc6sgEMf/Gq+OyliTa9Nfl556eMcMgY0yQdYCVn1//cOIMb62Mz1E68HBL7uwflhgA7Ir22dNq+IVOcggiXgbkIcgSbZx6t690A1CFpNByLXggxRPwpv4C16MvFoLDmZmaBGlFdVcZKgUMDvTqNbYzM2OKOezVjSHT8Ibo/Kz+kdwWwzqJo0m/QVEXowzx5HvOVB2yjXWys8XJOR4fobuko5jeXtTUI7NlUQeA7LTiHZole0OZI92xDb4PX3Te4lbg7I/cUgGhw8qaxgjPsdlu5EFp6aA3jwKyH1hS+masWu60KvepGzzPgdC2pgkpFW1N6A/BAMTmnfT21mNJ9ihRO2sFSrndO+nBW2h/Tb0+ALE5RlgCVZ3zsQ7bLyHT7GNJ9pM65VuB6m4WqrM/yD1GZJfxp0ouYYH9TW09MbQGJZVbWFPFd8rsA3qk1B5CCxZEF+cZb/F7+7G/Di19EANhLxTtER+WBBbkkW/hS1bChtIaqxgjLIC1tuw8YroNkuh03zJI478l2xfIbsjyyDbrnPIubvSiSlZccuumXhjQXMzjMaidtXHGaOrfqxjsHfFl3CEupBJrPlRY89ltYtjVZzxmjjNkllJRh6LXyTucyooz31XRTt5/Ac=&lt;/diagram&gt;&lt;/mxfile&gt;"><defs/><g transform="translate(0.5,0.5)"><path d="M 34.92 46.51 L 4.77 50.79 L 4.77 23.2 L 34.92 27.49 Z" fill="#d9a741" stroke="none" pointer-events="none"/><path d="M 1 24.34 L 30.5 15.4 L 30.5 1 L 1 15.91 Z" fill="#876929" stroke="none" pointer-events="none"/><path d="M 1.02 49.65 L 30.5 58.6 L 30.5 73 L 1.02 58.09 Z" fill="#876929" stroke="none" pointer-events="none"/><path d="M 60 24.35 L 30.5 15.4 L 30.5 1 L 60 15.91 Z" fill="#d9a741" stroke="none" pointer-events="none"/><path d="M 59.98 49.66 L 30.5 58.6 L 30.5 73 L 59.98 58.1 Z" fill="#d9a741" stroke="none" pointer-events="none"/><path d="M 4.77 59.99 L 1 58.09 L 1 15.91 L 4.77 14 Z" fill="#876929" stroke="none" pointer-events="none"/><path d="M 19.63 44.76 L 30.5 46.16 L 30.5 27.83 L 19.63 29.23 Z" fill="#876929" stroke="none" pointer-events="none"/><path d="M 8.7 43.35 L 15.75 44.26 L 15.75 29.73 L 8.7 30.64 Z" fill="#876929" stroke="none" pointer-events="none"/><path d="M 4.77 23.2 L 30.5 15.4 L 60 24.35 L 34.94 27.5 Z" fill="#624a1e" stroke="none" pointer-events="none"/><path d="M 4.77 50.79 L 30.5 58.6 L 59.98 49.66 L 34.92 46.51 Z" fill="#fad791" stroke="none" pointer-events="none"/><path d="M 59.98 42.33 L 30.5 46.09 L 30.5 27.83 L 59.98 31.63 Z" fill="#d9a741" stroke="none" pointer-events="none"/><path d="M 106.85 57.95 L 99.96 59.54 L 99.96 14.41 L 106.85 16 Z" fill="#f58536" stroke="none" pointer-events="none"/><path d="M 115.45 60.62 L 106.85 63.09 L 106.85 10.93 L 115.45 13.39 Z" fill="#f58536" stroke="none" pointer-events="none"/><path d="M 126.5 63.35 L 115.45 67.44 L 115.45 6.58 L 126.5 10.66 Z" fill="#f58536" stroke="none" pointer-events="none"/><path d="M 156 58.09 L 126.5 73 L 126.5 1 L 156 15.91 Z" fill="#f58536" stroke="none" pointer-events="none"/><path d="M 120.61 3.97 L 126.5 1 L 126.5 73 L 120.61 70.03 Z" fill="#9d5025" stroke="none" pointer-events="none"/><path d="M 110.9 8.88 L 115.45 6.58 L 115.45 67.42 L 110.9 65.12 Z" fill="#9d5025" stroke="none" pointer-events="none"/><path d="M 103.22 12.76 L 106.85 10.92 L 106.85 63.08 L 103.22 61.24 Z" fill="#9d5025" stroke="none" pointer-events="none"/><path d="M 99.96 14.41 L 97 15.9 L 97 58.1 L 99.96 59.59 Z" fill="#9d5025" stroke="none" pointer-events="none"/><path d="M 242.13 19.14 L 249 24.51 L 249 16.91 L 242.09 8.14 L 242.09 19.1 L 242.13 19.11 Z" fill="#2d72b8" stroke="none" pointer-events="none"/><path d="M 228.9 73 L 242.09 65.85 L 242.09 8.12 L 228.89 1 Z" fill="#5294cf" stroke="none" pointer-events="none"/><path d="M 210.1 73 L 196.91 65.85 L 196.91 8.12 L 210.11 1 Z" fill="#205b98" stroke="none" pointer-events="none"/><rect x="210.11" y="1" width="18.76" height="72" fill="#2d72b8" stroke="none" pointer-events="none"/><path d="M 242.09 54.9 L 242.09 65.85 L 249 57.09 L 249 49.49 L 242.13 54.88 Z" fill="#2d72b8" stroke="none" pointer-events="none"/><path d="M 242.09 50.27 L 242.13 50.26 L 249 46.26 L 249 38.61 L 242.09 39.3 Z" fill="#2d72b8" stroke="none" pointer-events="none"/><path d="M 242.13 23.76 L 242.09 23.75 L 242.09 34.68 L 249 35.38 L 249 27.74 Z" fill="#2d72b8" stroke="none" pointer-events="none"/><path d="M 249 35.38 L 242.09 34.68 L 228.89 34.11 L 219.5 34.11 L 210.11 34.11 L 196.91 34.68 L 196.91 23.78 L 196.9 23.78 L 196.91 23.75 L 210.11 20.44 L 219.5 20.44 L 228.89 20.44 L 242.09 23.75 L 246.95 26.55 L 246.95 24.75 L 249 24.51 L 242.09 19.1 L 228.89 14.67 L 219.5 14.67 L 210.11 14.67 L 196.91 19.1 L 196.91 8.14 L 190 16.9 L 190 24.56 L 190.06 24.51 L 192.05 24.75 L 192.05 26.58 L 190 27.77 L 190 35.39 L 190.06 35.38 L 192.05 35.41 L 192.05 38.61 L 190.33 38.64 L 190 38.6 L 190 46.22 L 192.05 47.42 L 192.05 49.27 L 190.08 49.51 L 190 49.44 L 190 57.09 L 196.91 65.85 L 196.91 54.9 L 210.11 59.33 L 219.5 59.33 L 228.89 59.33 L 242.13 54.88 L 249 49.52 L 246.95 49.27 L 246.95 47.45 L 242.13 50.26 L 228.89 53.55 L 228.89 53.56 L 219.5 53.56 L 210.11 53.56 L 210.11 53.55 L 196.87 50.26 L 196.84 50.21 L 196.91 50.25 L 196.91 39.3 L 210.11 39.87 L 210.11 39.88 L 219.5 39.88 L 228.89 39.88 L 228.89 39.87 L 242.09 39.3 L 249 38.64 L 246.95 38.61 L 246.95 35.41 Z" fill="#1a476f" stroke="none" pointer-events="none"/><path d="M 60 149.66 L 30.5 145.95 L 1 149.66 L 30.5 158.6 Z" fill="#99bce3" stroke="none" pointer-events="none"/><path d="M 60 124.34 L 30.5 128.05 L 1 124.34 L 30.5 115.4 Z" fill="#1a476f" stroke="none" pointer-events="none"/><path d="M 30.5 101 L 1 115.9 L 1 124.34 L 30.5 115.4 Z" fill="#205b98" stroke="none" pointer-events="none"/><path d="M 30.5 158.6 L 1 149.66 L 1 158.1 L 30.5 173 Z" fill="#205b98" stroke="none" pointer-events="none"/><path d="M 30.5 147.89 L 18.03 145.98 L 18.03 128.16 L 30.5 126.29 Z" fill="#205b98" stroke="none" pointer-events="none"/><path d="M 30.5 101 L 60 115.9 L 60 124.34 L 30.5 115.4 Z" fill="#5294cf" stroke="none" pointer-events="none"/><path d="M 30.5 158.6 L 60 149.66 L 60 158.1 L 30.5 173 Z" fill="#5294cf" stroke="none" pointer-events="none"/><path d="M 30.5 147.89 L 42.97 145.98 L 42.97 128.16 L 30.5 126.29 Z" fill="#5294cf" stroke="none" pointer-events="none"/><path d="M 290 157.09 L 297.38 165.86 L 297.38 108.14 L 290 116.9 Z" fill="#1a476f" stroke="none" pointer-events="none"/><path d="M 297.38 165.86 L 311.47 173 L 311.48 101 L 297.38 108.12 Z" fill="#205b98" stroke="none" pointer-events="none"/><path d="M 353 116.9 L 345.62 108.14 L 345.62 165.86 L 353 157.09 Z" fill="#2d72b8" stroke="none" pointer-events="none"/><path d="M 331.52 173 L 345.62 165.86 L 345.62 108.12 L 331.51 101 Z" fill="#5294cf" stroke="none" pointer-events="none"/><rect x="311.48" y="101" width="20.04" height="72" fill="#2d72b8" stroke="none" pointer-events="none"/><path d="M 231.96 166.7 L 219.5 173 L 219.5 101 L 231.96 107.3 Z" fill="#f58536" stroke="none" pointer-events="none"/><path d="M 207.03 166.7 L 219.5 173 L 219.5 101 L 207.03 107.3 Z" fill="#9d5025" stroke="none" pointer-events="none"/><path d="M 214.8 127.21 L 193.75 124.5 L 193.75 114.01 L 214.8 119 Z" fill="#f58536" stroke="none" pointer-events="none"/><path d="M 245.23 120.15 L 224.19 123.81 L 224.19 132.39 L 245.23 131.12 Z" fill="#9d5025" stroke="none" pointer-events="none"/><path d="M 249 131.53 L 245.23 131.03 L 245.23 120.15 L 249 121.55 Z" fill="#f58536" stroke="none" pointer-events="none"/><path d="M 190 115.91 L 193.75 114.01 L 193.75 124.5 L 190 125.53 Z" fill="#9d5025" stroke="none" pointer-events="none"/><path d="M 214.8 127.21 L 210.42 127.85 L 190 125.53 L 193.75 124.5 Z" fill="#6b3a19" stroke="none" pointer-events="none"/><path d="M 249 131.53 L 228.1 132.66 L 224.19 132.39 L 245.66 131.09 Z" fill="#6b3a19" stroke="none" pointer-events="none"/><path d="M 135.24 130.85 L 148.89 129.79 L 148.89 112.36 L 135.24 115.96 Z" fill="#8c3123" stroke="none" pointer-events="none"/><path d="M 140.57 128.62 L 126.36 126.53 L 126.36 101 L 140.57 108.22 Z" fill="#e05243" stroke="none" pointer-events="none"/><path d="M 156 130.87 L 148.89 129.82 L 148.89 112.36 L 156 115.96 Z" fill="#e05243" stroke="none" pointer-events="none"/><path d="M 135.24 130.85 L 148.74 129.8 L 156 130.87 L 142.96 131.66 Z" fill="#5e1f18" stroke="none" pointer-events="none"/><path d="M 135.24 143.15 L 148.89 144.21 L 148.89 161.64 L 135.24 158.04 Z" fill="#8c3123" stroke="none" pointer-events="none"/><path d="M 140.57 145.38 L 126.36 147.47 L 126.36 173 L 140.57 165.78 Z" fill="#e05243" stroke="none" pointer-events="none"/><path d="M 155.85 143.13 L 148.76 144.18 L 148.76 161.64 L 155.85 158.04 Z" fill="#e05243" stroke="none" pointer-events="none"/><path d="M 135.24 143.15 L 148.74 144.2 L 156 143.13 L 142.96 142.34 Z" fill="#f2b0a9" stroke="none" pointer-events="none"/><path d="M 117.61 130.85 L 103.97 129.79 L 103.97 112.36 L 117.61 115.96 Z" fill="#e05243" stroke="none" pointer-events="none"/><path d="M 112.28 128.62 L 126.5 126.53 L 126.5 101 L 112.28 108.22 Z" fill="#8c3123" stroke="none" pointer-events="none"/><path d="M 97 130.87 L 104.11 129.82 L 104.11 112.36 L 97 115.96 Z" fill="#8c3123" stroke="none" pointer-events="none"/><path d="M 117.75 130.85 L 104.25 129.8 L 97 130.87 L 110.03 131.66 Z" fill="#5e1f18" stroke="none" pointer-events="none"/><path d="M 117.61 143.15 L 103.97 144.21 L 103.97 161.64 L 117.61 158.04 Z" fill="#e05243" stroke="none" pointer-events="none"/><path d="M 112.28 145.38 L 126.5 147.47 L 126.5 173 L 112.28 165.78 Z" fill="#8c3123" stroke="none" pointer-events="none"/><path d="M 97 143.13 L 104.11 144.18 L 104.11 161.64 L 97 158.04 Z" fill="#8c3123" stroke="none" pointer-events="none"/><path d="M 117.75 143.15 L 104.25 144.2 L 97 143.13 L 110.03 142.34 Z" fill="#f2b0a9" stroke="none" pointer-events="none"/><path d="M 140.72 145.38 L 126.5 143.97 L 112.28 145.38 L 126.5 147.5 Z" fill="#f2b0a9" stroke="none" pointer-events="none"/><path d="M 140.72 128.62 L 126.5 130.01 L 112.28 128.62 L 126.5 126.53 Z" fill="#5e1f18" stroke="none" pointer-events="none"/><path d="M 321.5 54.35 L 346.25 60.4 L 346.25 13.49 L 321.5 19.54 Z" fill="#8c3123" stroke="none" pointer-events="none"/><path d="M 346.25 13.49 L 351 15.89 L 351 58.01 L 346.25 60.41 Z" fill="#e05243" stroke="none" pointer-events="none"/><path d="M 332.29 21.86 L 321.5 19.16 L 321.5 1 L 332.29 6.45 Z" fill="#e05243" stroke="none" pointer-events="none"/><path d="M 321.5 73 L 332.29 67.55 L 332.29 52.15 L 321.5 54.84 Z" fill="#e05243" stroke="none" pointer-events="none"/><path d="M 332.29 44.71 L 321.5 46.1 L 321.5 27.94 L 332.29 29.31 Z" fill="#e05243" stroke="none" pointer-events="none"/><path d="M 321.5 54.35 L 296.75 60.4 L 296.75 13.49 L 321.5 19.54 Z" fill="#e05243" stroke="none" pointer-events="none"/><path d="M 296.75 13.49 L 292 15.89 L 292 58.01 L 296.75 60.41 Z" fill="#8c3123" stroke="none" pointer-events="none"/><path d="M 310.71 21.86 L 321.5 19.16 L 321.5 1 L 310.71 6.45 Z" fill="#8c3123" stroke="none" pointer-events="none"/><path d="M 321.5 73 L 310.71 67.55 L 310.71 52.15 L 321.5 54.84 Z" fill="#8c3123" stroke="none" pointer-events="none"/><path d="M 310.71 44.71 L 321.5 46.1 L 321.5 27.94 L 310.71 29.31 Z" fill="#8c3123" stroke="none" pointer-events="none"/><path d="M 332.29 21.86 L 321.5 23.84 L 310.71 21.86 L 321.5 19.16 Z" fill="#5e1f18" stroke="none" pointer-events="none"/><path d="M 332.29 52.14 L 321.5 50.15 L 310.71 52.14 L 321.5 54.86 Z" fill="#f2b0a9" stroke="none" pointer-events="none"/></g></svg>
